Yaru++/actions/16/draw-triangle4.svg

<svg viewBox="0 0 24 24" xmlns="http://www.w3.org/2000/svg"><path d="m3 4 .6445312 1.1425781 8.3554688 14.8574219 8.355469-14.8574219.644531-1.1425781h-1.300781-15.574219zm1.78125 1.1425781h14.273438l-7.054688 12.5449219z" fill="#808080"/></svg>

<svg xmlns="http://www.w3.org/2000/svg" viewBox="0 0 24 24">
 <defs>
  <style id="current-color-scheme" type="text/css">
   .ColorScheme-Text { color:#808080; }
  </style>
 </defs>
 <path fill="#808080" class="ColorScheme-Text" d="M 3 4 L 3.6445312 5.1425781 L 12 20 L 20.355469 5.1425781 L 21 4 L 19.699219 4 L 4.125 4 L 3 4 z M 4.78125 5.1425781 L 19.054688 5.1425781 L 12 17.6875 L 4.78125 5.1425781 z"/>
</svg>
